X:1
T:Title
%%score { 1 | 2 }
L:1/8
M:4/4
K:Ab
V:1 treble nm="Grand Piano"
V:2 bass 
V:1
 z4 z2[Q:1/4=100] [A,C][B,D] | [CE]2 [Ec]2 [CA]2 [DG][EA] | B2 A2 F2 [FA][DF] | %3
 [CE]2 [CA]2 [EA]2 [Ec]2 | B6 cd | e2 [Ec]2 [Ec]2 [EB][EA] | F2 A2 E2 [EA][FB] | c2 A2 B2 c2 | %8
[M:3/4] [CA]6 |[M:1/4] [EG][FA] |[M:4/4] [GB]2 [Ge]2 [GB]2 [FA][EG] | [=DF]2 [Dc]2 B2 EF | %12
 G2 [CEA]2 [B,=DF]2 [A,DF]2 | [G,E]6 [A,EA]B | c2 e2 c2 [DB][CA] | F2 A2 E2 [EA][FB] | %16
 c2 A2 B2 c2 |[M:3/4] [CA]6 |] %18
V:2
 z4 z2 [A,,E,][A,,E,] | [A,,A,]2 [A,,A,]2 [A,,A,]2 [B,,E,][C,A,] | %2
 [D,F,D]2 [D,F,D]2 [D,A,D]2 [D,A,][D,A,] | [A,,A,]2 [A,,A,]2 [C,A,]2 [A,,A,]2 | %4
 [E,G,E]6 [A,E][A,B,E] | [A,CE]2 [A,,A,]2 [A,,A,]2 [B,,G,][C,A,] | %6
 [D,A,D]2 [F,A,D]2 [A,C]2 [C,A,][D,A,] | [E,A,E]2 [E,A,C]2 [E,G,D]2 [E,G,E]2 |[M:3/4] [A,,A,]6 | %9
[M:1/4] [E,B,][E,B,] |[M:4/4] [E,B,]2 [E,B,]2 [E,B,]2 [B,,B,][B,,B,] | %11
 [B,,B,]2 [B,,A,]2 [E,G,E]2 [E,G,][E,A,E] | [E,B,E]2 A,,2 B,,2 B,,2 | E,6 C,[E,G,E] | %14
 [A,E]2 [A,CE]2 [A,E]2 [A,,A,][A,,A,] | [D,A,D]2 [F,A,D]2 [A,C]2 [C,A,][D,A,] | %16
 [E,A,E]2 [E,A,C]2 [E,G,D]2 [E,G,E]2 |[M:3/4] [A,,A,]6 |] %18

